svgs/regular/bed.svg

<svg xmlns="http://www.w3.org/2000/svg" viewBox="0 0 640 512"><!-- Font Awesome Pro 6.0.0-alpha2 by @fontawesome - https://fontawesome.com License - https://fontawesome.com/license (Commercial License) --><path d="M168 304C216.5 304 256 264.5 256 216S216.5 128 168 128S80 167.5 80 216S119.5 304 168 304ZM168 176C190 176 208 194 208 216C208 238 190 256 168 256C146 256 128 238 128 216C128 194 146 176 168 176ZM528 128H304C295.163 128 288 135.163 288 144V336H48V56C48 42.745 37.255 32 24 32H24C10.745 32 0 42.745 0 56V456C0 469.255 10.745 480 24 480H24C37.255 480 48 469.255 48 456V384H592V456C592 469.255 602.745 480 616 480L616 480C629.255 480 640 469.255 640 456V240C640 178.144 589.856 128 528 128ZM592 336H336V176H528C563.25 176 592 204.75 592 240V336Z"/></svg>

<svg xmlns="http://www.w3.org/2000/svg" viewBox="0 0 640 512"><!-- Font Awesome Pro 5.15.1 by @fontawesome - https://fontawesome.com License - https://fontawesome.com/license (Commercial License) --><path d="M168 304c48.52 0 88-39.48 88-88s-39.48-88-88-88-88 39.48-88 88 39.48 88 88 88zm0-128c22.06 0 40 17.94 40 40s-17.94 40-40 40-40-17.94-40-40 17.94-40 40-40zm360-48H304c-8.84 0-16 7.16-16 16v192H48V80c0-8.84-7.16-16-16-16H16C7.16 64 0 71.16 0 80v352c0 8.84 7.16 16 16 16h16c8.84 0 16-7.16 16-16v-48h544v48c0 8.84 7.16 16 16 16h16c8.84 0 16-7.16 16-16V240c0-61.86-50.14-112-112-112zm64 208H336V176h192c35.29 0 64 28.71 64 64v96z"/></svg>
